src/images/Video-icon.svg

<svg width="84" height="84" viewBox="0 0 84 84" fill="none" xmlns="http://www.w3.org/2000/svg">
<path d="M73.5 10.5H10.5C6.615 10.5 3.5 13.615 3.5 17.5V59.5C3.5 61.3565 4.2375 63.137 5.55025 64.4497C6.86301 65.7625 8.64348 66.5 10.5 66.5H28V73.5H56V66.5H73.5C77.35 66.5 80.465 63.35 80.465 59.5L80.5 17.5C80.5 15.6435 79.7625 13.863 78.4497 12.5503C77.137 11.2375 75.3565 10.5 73.5 10.5ZM73.5 59.5H10.5V17.5H73.5V59.5ZM56 38.5L31.5 52.5V24.5L56 38.5Z" fill="#3E6C5F"/>
</svg>

<?xml version="1.0" encoding="utf-8"?>
<!-- Generator: Adobe Illustrator 25.2.0, SVG Export Plug-In . SVG Version: 6.00 Build 0)  -->
<svg version="1.1" id="Layer_1" xmlns="http://www.w3.org/2000/svg" xmlns:xlink="http://www.w3.org/1999/xlink" x="0px" y="0px"
	 viewBox="0 0 84 84" style="enable-background:new 0 0 84 84;" xml:space="preserve">
<style type="text/css">
	.st0{fill:#3BB4CA;}
</style>
<path class="st0" d="M73.5,10.5h-63c-3.9,0-7,3.1-7,7v42c0,1.9,0.7,3.6,2.1,4.9c1.3,1.3,3.1,2.1,4.9,2.1H28v7h28v-7h17.5
	c3.8,0,7-3.2,7-7l0-42c0-1.9-0.7-3.6-2.1-4.9C77.1,11.2,75.4,10.5,73.5,10.5z M73.5,59.5h-63v-42h63V59.5z M56,38.5l-24.5,14v-28
	L56,38.5z"/>
</svg>
